X: 7
T: Farewell To Chernobyl
R: reel
M: 4/4
L: 1/8
K: Dmin
"Dm"D2 DF ADFA|DFAD FAFD|"Am"A,2 A,C EA,CE|A,CEA, DAFE|"Bb"D2 DF ADFA|DFAD FAD=B|"C"c2 Gc EcGe|1fedc dcAF:|2fedc dcAc|||:"Dm"d2 fd gdfd|d2 fg gfdc|"Bb"B2 fB gBfB|"C"efef dGBA|[1"Dm"d2 fd gdfd|d2 fg gdfg|"Bb"aAAa "Am"gAAg|"Bb"fAAf "C"eABA:|[2"Dm"d2 fA dfdA|"Bb"B2 fB dfdB|"C"c2 gc egcg|agfe fgef|


Tune 767	Setting 13880

